X:1
T:Title
%%score { ( 1 3 4 ) | ( 2 5 ) }
L:1/8
M:4/4
K:Eb
V:1 treble nm="Grand Piano"
V:3 treble 
V:4 treble 
V:2 bass 
V:5 bass 
V:1
 z4 z2[Q:1/4=100] [GB]>[FA] | G>G F>E A>[FA] G>F | B>[DB] [EB]>[FB] B2 B>B | %3
 [Ec]>[Ee] [Ee]>[Ec] B>c B>G | [DF]6 [DB]>[DA] | G>G F>E A>[FA] G>F | B>[DB] [EB]>[FB] B2 G>G | %7
 F>=A c>d e>e d>c |[M:3/4] [DB]6 |[M:1/4] B>B |[M:4/4] [Ge]6 z2 | [EGB]2 [DAB]2 [EB]2 [B,GB]>[Gc] | %12
 [Ad]>[Ad] [Ad]>[Ac] [Ad]2 [DAc]>[FAd] | [Ac]>[GB] [GB]>[_G=A] [=GB]2 [GB]>[GB] | [Ac]6 z2 | %15
[M:9/8] [Ge]2 [EBd]- [EBd] [EAc]2- [EAc][EAc]>[EAc] |[M:4/4] [EGB]>[Ge] [EB]>[Ec] [EG]2 [DF]2 | %17
[M:3/4] E6 |] %18
V:2
 z4 z2 [E,B,]>[E,B,] | [E,B,E]>[E,B,E] [E,A,E]>[E,G,] [F,B,D]>[B,,B,] [E,B,E]>[A,B,D] | %2
 [G,B,E]>[B,,B,] [C,B,]>[D,A,] [E,G,E]2 [E,G,E]>[E,G,E] | %3
 [A,,A,]>[A,,C] [A,,C]>[C,A,] [E,G,E]>[E,A,E] [E,G,E]>[E,B,E] | [B,,B,]6 [B,,B,]>[B,,B,] | %5
 [E,B,E]>[E,B,E] [E,A,B,]>[E,G,B,] [F,B,D]>[B,,B,] [E,B,E]>[A,B,D] | %6
 [G,B,E]>[B,,B,] [C,B,]>[D,A,] [E,G,E]2 [E,B,E]>[E,B,E] | %7
 [F,=A,E]>[F,CE] [F,A,E]>[F,B,F] [F,CF]>[F,CF] [F,B,F]>[F,A,E] |[M:3/4] [B,,B,]6 | %9
[M:1/4][K:treble] [B,A]>[B,A] |[M:4/4][K:bass] [E,B,]2 E,2 z z/ G/ (3[E,B,][E,C]E, | %11
 E,2 F,2 G,2 E,>[E,B,] | [B,,B,]>[B,,B,] [B,,B,]>[B,,B,] [B,,B,]2 B,,>B,, | %13
 [E,E]>[E,E] [E,E]>[E,E] [E,E]2 [E,E]>[E,E] | %14
 [A,E]2 A,>A, A,>[K:treble][A,DA] (3[A,EA][A,EA][K:bass][F,B,] | %15
[M:9/8] [E,B,]2 G,- G, A,2- A,A,,>A,, |[M:4/4] B,,>[B,,B,] [B,,G,]>[B,,A,] [B,,B,]2 [B,,A,]2 | %17
[M:3/4] [E,G,]6 |] %18
V:3
 x8 | x8 | x8 | x8 | x8 | x8 | x8 | x8 |[M:3/4] x6 |[M:1/4] x2 | %10
[M:4/4] z2 B,2 z z/ d/ (3[Ge][Ad][DAc] | x8 | x8 | x8 | z2 E>E E>c (3cc[Ad] |[M:9/8] x9 | %16
[M:4/4] x8 |[M:3/4] x6 |] %18
V:4
 x8 | x8 | x8 | x8 | x8 | x8 | x8 | x8 |[M:3/4] x6 |[M:1/4] x2 |[M:4/4] z4 B,2 z2 | x8 | x8 | x8 | %14
 x8 |[M:9/8] x9 |[M:4/4] x8 |[M:3/4] x6 |] %18
V:5
 x8 | x8 | x8 | x8 | x8 | x8 | x8 | x8 |[M:3/4] x6 |[M:1/4][K:treble] x2 | %10
[M:4/4][K:bass] z4 E,2 z2 | x8 | x8 | x8 | x11/2[K:treble] x11/6[K:bass] x2/3 |[M:9/8] x9 | %16
[M:4/4] x8 |[M:3/4] x6 |] %18

